X: 1
T: Inarin J\"arvi (Lake Inari)
C: Sv. Trad
C: San. Z.Topelius
R: waltz
N: Several sets of words exist for this tune.
N: Another well-known title is Villiruusu (Wild Rose)
Z: 1997 by John Chambers <jc@trillian.mit.edu>
M: 3/4
L: 1/4
K: Dm
|: A, | "Dm"D2D | "A7"E2F | "Dm"D3 | A,2D | "Gm"E2F | G2F | "A7"E3- | E2A |
w: E-tl-l poh-jan mail-la hy-lt-ty jr-vi on, |* sen
| "Dm"A2F | DDF | "Gm"F3 | "Gm"G,2B, | "A7"A,2A, | E2^C | "Dm"D3- | D2 A ||
w: saa-ret ni-me- vail-la ja ran-ta a-las ton. |* Hein'
|| "A7"A2G | "Dm"F2F | "Gm"G2F | "A7"E2E | "Dm"F2E | "Dm"D2D | "A7"E2^C | A,2A, |
